build/img/sprites/lead.svg

<svg width="85" height="85" viewBox="0 0 85 85" fill="none" xmlns="http://www.w3.org/2000/svg">
<path d="M39.4291 0.182617C31.9086 1.21191 25.2181 5.77734 21.599 12.3682C16.8676 20.9346 17.7972 31.2939 23.973 38.9639C27.9242 43.8447 34.2992 47.2148 40.5082 47.6797L41.0892 47.7295L41.139 51.7637L41.1722 55.7812H28.2894C18.6439 55.7812 15.224 55.8311 14.7094 55.9805C13.7963 56.2461 12.4183 57.624 12.1527 58.5371C12.0199 59.002 11.9535 60.7783 11.9535 64.2148V69.1953L11.389 69.2949C10.2767 69.5107 8.55018 70.5234 7.60389 71.5195C4.5658 74.6904 4.5658 79.3555 7.58728 82.5264C10.6918 85.7969 15.8715 85.7969 18.976 82.5264C21.9974 79.3555 21.9974 74.6904 18.9594 71.5195C18.0131 70.5234 16.2865 69.5107 15.1742 69.2949L14.6097 69.1953V64.2148V59.251L15.0248 58.8525L15.4232 58.4375H28.306H41.1722V63.8164V69.1953L40.6078 69.2949C39.4955 69.5107 37.7689 70.5234 36.8226 71.5195C33.7845 74.6904 33.7845 79.3555 36.806 82.5264C39.9105 85.7969 45.0902 85.7969 48.1947 82.5264C51.2162 79.3555 51.2162 74.6904 48.1781 71.5195C47.2318 70.5234 45.5053 69.5107 44.3929 69.2949L43.8285 69.1953V63.8164V58.4375H56.6947H69.5775L69.976 58.8525L70.391 59.251V64.2148V69.1953L69.8265 69.2949C68.7142 69.5107 66.9877 70.5234 66.0414 71.5195C63.0033 74.6904 63.0033 79.3555 66.0248 82.5264C69.1293 85.7969 74.309 85.7969 77.4135 82.5264C80.4349 79.3555 80.4349 74.6904 77.3969 71.5195C76.4506 70.5234 74.724 69.5107 73.6117 69.2949L73.0472 69.1953V64.2148C73.0472 60.8447 72.9808 59.002 72.848 58.5703C72.7484 58.2051 72.3334 57.541 71.9349 57.1094C70.6898 55.7148 71.4535 55.7812 56.7445 55.7812H43.8285L43.8617 51.7471L43.9115 47.7295L44.5756 47.6797C50.6517 47.248 57.0931 43.8447 61.0277 38.9639C64.7797 34.2988 66.639 28.6377 66.3402 22.7441C66.1576 19.2412 65.4105 16.3857 63.8168 13.1816C60.5629 6.64062 54.2211 1.84277 46.9496 0.415039C45.306 0.0830078 41.056 -0.0498047 39.4291 0.182617ZM46.9828 3.1377C51.1498 4.08398 54.3871 5.87695 57.4584 8.94824C61.3597 12.833 63.4183 17.4316 63.684 22.9102C63.9994 29.0029 61.6254 34.9297 57.1762 39.1797L55.8646 40.4248L55.7484 38.4326C55.6322 36.1416 55.4662 35.3281 54.7855 33.5518C54.1713 31.9746 53.2582 30.6133 51.9301 29.2354C50.934 28.2227 48.8422 26.6953 48.1283 26.4795C47.8295 26.3799 47.9291 26.2471 48.8588 25.334C51.8637 22.3955 52.6107 18.2617 50.8012 14.5098C48.0619 8.81543 40.475 7.55371 35.9594 12.0527C32.2904 15.7217 32.3236 21.5654 36.0092 25.1846L37.1381 26.2969L35.7601 27.127C33.3861 28.5381 31.3607 30.8125 30.348 33.2197C29.6176 34.9629 29.3685 36.125 29.2523 38.3496L29.1361 40.4248L27.8246 39.1797C21.0844 32.7383 19.3578 22.6943 23.5414 14.3604C25.4838 10.4756 29.1527 6.83984 33.1205 4.84766C35.0297 3.90137 38.0179 3.00488 40.0931 2.77246C41.5375 2.60645 45.5717 2.82227 46.9828 3.1377ZM45.223 12.584C46.7338 13.2812 47.6967 14.2441 48.4437 15.7383C49.0248 16.9336 49.058 17.083 49.058 18.5938C49.058 20.1045 49.0248 20.2539 48.4437 21.4492C47.6967 22.96 46.7338 23.8896 45.1898 24.6201C44.1771 25.1016 43.9281 25.1514 42.5004 25.1514C41.0726 25.1514 40.8236 25.1016 39.8441 24.6367C38.267 23.873 37.3041 22.96 36.5736 21.4492C35.976 20.2539 35.9428 20.1045 35.9428 18.6104C35.9428 17.166 35.9926 16.917 36.474 15.9043C37.1381 14.4932 38.0844 13.4639 39.3295 12.8164C40.6244 12.1191 41.3549 11.9531 42.8656 12.0195C43.8783 12.0693 44.3929 12.2021 45.223 12.584ZM44.7416 28.1396C48.2943 28.8701 51.4984 31.8086 52.6605 35.3613C52.9428 36.2412 53.0258 36.9717 53.0922 39.3955L53.1586 42.334L51.7806 42.9814C48.4935 44.5254 46.0697 45.0732 42.5004 45.0732C38.931 45.0732 36.391 44.4922 33.2533 42.9814L31.8754 42.3174V39.877C31.8754 36.9053 32.141 35.5605 33.0375 33.7676C35.2289 29.4346 39.9769 27.1436 44.7416 28.1396ZM15.7885 72.3994C16.9008 72.9971 17.4154 73.5283 18.0629 74.7734C18.4281 75.4873 18.4945 75.8359 18.4945 77.0312C18.5111 78.3262 18.4613 78.5254 17.9467 79.4883C17.3158 80.6504 16.7845 81.1484 15.5394 81.8125C14.8256 82.1777 14.4769 82.2441 13.2816 82.2441C12.0863 82.2441 11.7377 82.1777 11.0238 81.8125C9.77869 81.1484 9.24744 80.6504 8.61658 79.4883C8.10193 78.5254 8.05213 78.3262 8.06873 77.0312C8.06873 75.3711 8.46717 74.375 9.54627 73.2959C11.2064 71.6357 13.6801 71.2871 15.7885 72.3994ZM45.0072 72.3994C46.1195 72.9971 46.6342 73.5283 47.2816 74.7734C47.6469 75.4873 47.7133 75.8359 47.7133 77.0312C47.7299 78.3262 47.6801 78.5254 47.1654 79.4883C46.5345 80.6504 46.0033 81.1484 44.7582 81.8125C44.0443 82.1777 43.6957 82.2441 42.5004 82.2441C41.3051 82.2441 40.9564 82.1777 40.2426 81.8125C38.9974 81.1484 38.4662 80.6504 37.8353 79.4883C37.3207 78.5254 37.2709 78.3262 37.2875 77.0312C37.2875 75.3711 37.6859 74.375 38.765 73.2959C40.4252 71.6357 42.8988 71.2871 45.0072 72.3994ZM74.226 72.3994C75.3383 72.9971 75.8529 73.5283 76.5004 74.7734C76.8656 75.4873 76.932 75.8359 76.932 77.0312C76.9486 78.3262 76.8988 78.5254 76.3842 79.4883C75.7533 80.6504 75.2221 81.1484 73.9769 81.8125C73.2631 82.1777 72.9144 82.2441 71.7191 82.2441C70.5238 82.2441 70.1752 82.1777 69.4613 81.8125C68.2162 81.1484 67.6849 80.6504 67.0541 79.4883C66.5394 78.5254 66.4896 78.3262 66.5062 77.0312C66.5062 75.3711 66.9047 74.375 67.9838 73.2959C69.6439 71.6357 72.1176 71.2871 74.226 72.3994Z" fill="#4988D1"/>
<path d="M40.2921 29.6006C39.9601 29.916 39.8107 30.5801 39.1964 34.249C38.798 36.6064 38.5324 38.6982 38.5822 38.8975C38.632 39.1133 39.4122 39.9932 40.3087 40.8896C42.5001 43.0479 42.5001 43.0479 44.6915 40.8896C45.588 39.9932 46.3683 39.1133 46.4181 38.8975C46.4679 38.6982 46.2023 36.6064 45.8038 34.249C44.924 28.9365 45.1066 29.2188 42.5001 29.2188C40.8068 29.2188 40.6242 29.252 40.2921 29.6006ZM42.7326 32.1572C42.7658 32.3232 43.0148 33.7178 43.2638 35.2451L43.712 38.0342L43.1144 38.6484L42.5001 39.2627L41.8859 38.6484L41.2882 38.0342L41.7365 35.2451C42.2511 32.0908 42.3009 31.875 42.5001 31.875C42.5831 31.875 42.6827 32.0078 42.7326 32.1572Z" fill="#4988D1"/>
</svg>

<svg width="85" height="85" viewBox="0 0 85 85" fill="none" xmlns="http://www.w3.org/2000/svg"><path d="M39.43.183c-7.521 1.029-14.212 5.594-17.831 12.185-4.731 8.567-3.802 18.926 2.374 26.596 3.951 4.88 10.326 8.25 16.535 8.716l.581.05.05 4.034.033 4.017H28.29c-9.645 0-13.065.05-13.58.2-.913.265-2.29 1.643-2.556 2.556-.133.465-.2 2.241-.2 5.678v4.98l-.564.1c-1.112.216-2.839 1.228-3.785 2.224-3.038 3.171-3.038 7.837-.017 11.007a7.836 7.836 0 0011.389 0c3.021-3.17 3.021-7.836-.017-11.007-.946-.996-2.672-2.008-3.785-2.224l-.564-.1v-9.944l.415-.398.398-.416h25.749v10.758l-.564.1c-1.112.216-2.84 1.228-3.785 2.224-3.038 3.171-3.038 7.837-.017 11.007a7.836 7.836 0 0011.389 0c3.021-3.17 3.021-7.836-.017-11.007-.946-.996-2.673-2.008-3.785-2.224l-.565-.1V58.437h25.75l.398.416.415.398v9.944l-.565.1c-1.112.216-2.838 1.228-3.785 2.224-3.038 3.171-3.038 7.837-.016 11.007a7.836 7.836 0 0011.388 0c3.022-3.17 3.022-7.836-.016-11.007-.946-.996-2.673-2.008-3.785-2.224l-.565-.1v-4.98c0-3.37-.066-5.213-.199-5.645-.1-.365-.515-1.029-.913-1.46-1.245-1.395-.481-1.329-15.19-1.329H43.829l.033-4.034.05-4.017.664-.05c6.076-.432 12.517-3.835 16.452-8.716 3.752-4.665 5.611-10.326 5.312-16.22-.182-3.503-.93-6.358-2.523-9.562C60.563 6.64 54.22 1.842 46.95.415 45.306.083 41.056-.05 39.43.183zm7.553 2.955c4.167.946 7.404 2.739 10.475 5.81 3.902 3.885 5.96 8.484 6.226 13.962.315 6.093-2.059 12.02-6.508 16.27l-1.311 1.245-.117-1.992c-.116-2.291-.282-3.105-.962-4.881-.615-1.577-1.528-2.939-2.856-4.317-.996-1.012-3.088-2.54-3.802-2.755-.298-.1-.199-.233.73-1.146 3.006-2.939 3.753-7.072 1.943-10.824-2.74-5.695-10.326-6.956-14.842-2.457a9.195 9.195 0 00.05 13.132l1.13 1.112-1.379.83c-2.374 1.411-4.4 3.686-5.412 6.093-.73 1.743-.98 2.905-1.096 5.13l-.116 2.075-1.311-1.245a21.151 21.151 0 01-4.284-24.82c1.943-3.884 5.612-7.52 9.58-9.512 1.909-.947 4.897-1.843 6.972-2.076 1.444-.166 5.479.05 6.89.366zm-1.76 9.446c1.51.697 2.474 1.66 3.22 3.154.582 1.196.615 1.345.615 2.856 0 1.51-.033 1.66-.614 2.855-.747 1.511-1.71 2.44-3.254 3.171-1.013.482-1.262.531-2.69.531-1.427 0-1.676-.05-2.656-.514-1.577-.764-2.54-1.677-3.27-3.188-.598-1.195-.631-1.345-.631-2.839 0-1.444.05-1.693.531-2.706.664-1.41 1.61-2.44 2.856-3.088 1.294-.697 2.025-.863 3.536-.796 1.012.05 1.527.182 2.357.564zm-.481 15.556c3.552.73 6.756 3.669 7.919 7.221.282.88.365 1.61.431 4.035l.067 2.938-1.378.647c-3.288 1.544-5.711 2.092-9.28 2.092-3.57 0-6.11-.58-9.248-2.092l-1.378-.664v-2.44c0-2.972.266-4.317 1.163-6.11a10.61 10.61 0 0111.704-5.627zM15.789 72.4c1.112.597 1.626 1.128 2.274 2.373.365.714.431 1.063.431 2.258.017 1.295-.033 1.494-.547 2.457-.631 1.162-1.162 1.66-2.408 2.325-.713.365-1.062.431-2.257.431-1.196 0-1.544-.066-2.258-.431-1.245-.665-1.777-1.163-2.407-2.325-.515-.963-.565-1.162-.548-2.457 0-1.66.398-2.656 1.477-3.735 1.66-1.66 4.134-2.009 6.243-.897zm29.218 0c1.113.597 1.627 1.128 2.275 2.373.365.714.431 1.063.431 2.258.017 1.295-.033 1.494-.548 2.457-.63 1.162-1.162 1.66-2.407 2.325-.714.365-1.062.431-2.258.431-1.195 0-1.544-.066-2.257-.431-1.246-.665-1.777-1.163-2.408-2.325-.514-.963-.564-1.162-.547-2.457 0-1.66.398-2.656 1.477-3.735 1.66-1.66 4.134-2.009 6.242-.897zm29.219 0c1.112.597 1.627 1.128 2.274 2.373.366.714.432 1.063.432 2.258.017 1.295-.033 1.494-.548 2.457-.63 1.162-1.162 1.66-2.407 2.325-.714.365-1.063.431-2.258.431s-1.544-.066-2.258-.431c-1.245-.665-1.776-1.163-2.407-2.325-.515-.963-.564-1.162-.548-2.457 0-1.66.399-2.656 1.478-3.735 1.66-1.66 4.134-2.009 6.242-.897z" fill="#4988D1"/><path d="M40.292 29.6c-.332.316-.481.98-1.096 4.649-.398 2.357-.664 4.45-.614 4.648.05.216.83 1.096 1.727 1.993 2.191 2.158 2.191 2.158 4.383 0 .896-.897 1.676-1.777 1.726-1.992.05-.2-.216-2.292-.614-4.649-.88-5.313-.697-5.03-3.304-5.03-1.693 0-1.876.033-2.208.382zm2.44 2.557c.034.166.283 1.56.532 3.088l.448 2.79-.598.613-.614.615-.614-.615-.598-.614.449-2.789c.514-3.154.564-3.37.763-3.37.083 0 .183.133.233.282z" fill="#4988D1"/></svg>
